svg/digg.svg

<svg xmlns="http://www.w3.org/2000/svg" viewBox="0 0 64 36" enable-background="new 0 0 64 36"><style type="text/css">.st0{fill:#343434;}</style><title>digg</title><desc>Created with Sketch.</desc><path class="st0" d="M19.2 8.4h6.5v19.3h-6.5zM19.2.1h6.5v5.4h-6.5zM9.8 8.3h-9.8v19.2h16.3v-27.5h-6.5v8.3zm-.2 13.3h-3.3v-7.9h3.3v7.9zM28.8 27.8h9.5v2.4h-9.5v5.8h16v-27.6h-16v19.4zm6.1-13.3h3.2v7.9h-3.2v-7.9zM48 8.4v19.4h9.5v2.4h-9.5v5.8h16v-27.6h-16zm9.3 14h-3.3v-7.9h3.3v7.9z"/></svg>

<?xml version="1.0" encoding="utf-8"?>
<!-- Generator: Adobe Illustrator 21.0.0, SVG Export Plug-In . SVG Version: 6.00 Build 0)  -->
<svg version="1.1" id="Layer_1" xmlns="http://www.w3.org/2000/svg" xmlns:xlink="http://www.w3.org/1999/xlink" x="0px" y="0px"
	 viewBox="0 0 64 36" style="enable-background:new 0 0 64 36;" xml:space="preserve">
<style type="text/css">
	.st0{fill:#343434;}
</style>
<title>digg</title>
<desc>Created with Sketch.</desc>
<g>
	<rect x="19.2" y="8.4" class="st0" width="6.5" height="19.3"/>
	<rect x="19.2" y="0.1" class="st0" width="6.5" height="5.4"/>
	<path class="st0" d="M9.8,8.3H0v19.2h16.3V0H9.8V8.3z M9.6,21.6H6.3v-7.9h3.3V21.6z"/>
	<path class="st0" d="M28.8,27.8h9.5v2.4h-9.5V36h16V8.4h-16V27.8z M34.9,14.5h3.2v7.9h-3.2V14.5z"/>
	<path class="st0" d="M48,8.4v19.4h9.5v2.4H48V36h16V8.4H48z M57.3,22.4h-3.3v-7.9h3.3V22.4z"/>
</g>
</svg>
